svg/mono/visa.svg

<svg height="471" viewBox="0 0 750 471" width="750" xmlns="http://www.w3.org/2000/svg"><path d="m0 40.0047706c0-22.0940247 17.9143492-40.0047706 39.9919369-40.0047706h670.0161261c22.086937 0 39.991937 17.9064659 39.991937 40.0047706v390.9904584c0 22.094025-17.914349 40.004771-39.991937 40.004771h-670.0161261c-22.0869369 0-39.9919369-17.906466-39.9919369-40.004771zm524.5125 102.6827294c-10.572-3.966-27.136-8.222-47.823-8.222-52.724 0-89.864 26.551-90.18 64.604-.297 28.129 26.514 43.821 46.754 53.185 20.769 9.595 27.752 15.715 27.653 24.283-.132 13.122-16.586 19.117-31.923 19.117-21.357 0-32.703-2.967-50.226-10.276l-6.876-3.112-7.489 43.824c12.463 5.464 35.509 10.199 59.438 10.444 56.089 0 92.501-26.247 92.915-66.882.201-22.269-14.015-39.217-44.799-53.188-18.651-9.056-30.073-15.099-29.952-24.269 0-8.137 9.668-16.838 30.557-16.838 17.449-.271 30.088 3.534 39.936 7.5l4.782 2.259zm136.827-4.633h-41.231c-12.773 0-22.331 3.486-27.941 16.234l-79.245 179.403h56.031s9.162-24.122 11.234-29.418c6.123 0 60.554.084 68.336.084 1.596 6.853 6.492 29.334 6.492 29.334h49.512zm-65.797 126.178c4.413-11.279 21.259-54.723 21.259-54.723-.315.521 4.38-11.334 7.075-18.684l3.607 16.878s10.217 46.729 12.352 56.528h-44.293zm-317.892 69.397h53.336l33.384-195.762h-53.359zm-102.562018-89.262704-18.706982-89.950296c-3.23-12.396-12.598-16.095-24.187-16.527h-86.041l-.681 4.073c20.9299534 5.066538 39.6459477 12.377243 56.048301 21.471671l47.438699 170.026329 56.455-.065 84.004-195.385h-56.521l-52.24 133.495-5.566-27.129c-.001006-.003234-.002012-.006469-.003018-.009703z" fill="#393939"/></svg>

<svg width="750" height="471" viewBox="0 0 750 471" version="1.1" xmlns="http://www.w3.org/2000/svg" xmlns:xlink="http://www.w3.org/1999/xlink">
    <!-- Generator: Sketch 48.2 (47327) - http://www.bohemiancoding.com/sketch -->
    <desc>Created with Sketch.</desc>
    <defs></defs>
    <g id="Page-1" stroke="none" stroke-width="1" fill="none" fill-rule="evenodd">
        <path d="M0,40.0047706 C0,17.9107459 17.9143492,0 39.9919369,0 L710.008063,0 C732.095,0 750,17.9064659 750,40.0047706 L750,430.995229 C750,453.089254 732.085651,471 710.008063,471 L39.9919369,471 C17.905,471 0,453.093534 0,430.995229 L0,40.0047706 Z M524.5125,142.6875 C513.9405,138.7215 497.3765,134.4655 476.6895,134.4655 C423.9655,134.4655 386.8255,161.0165 386.5095,199.0695 C386.2125,227.1985 413.0235,242.8905 433.2635,252.2545 C454.0325,261.8495 461.0155,267.9695 460.9165,276.5375 C460.7845,289.6595 444.3305,295.6545 428.9935,295.6545 C407.6365,295.6545 396.2905,292.6875 378.7675,285.3785 L371.8915,282.2665 L364.4025,326.0905 C376.8655,331.5545 399.9115,336.2895 423.8405,336.5345 C479.9295,336.5345 516.3415,310.2875 516.7555,269.6525 C516.9565,247.3835 502.7405,230.4355 471.9565,216.4645 C453.3055,207.4085 441.8835,201.3655 442.0045,192.1955 C442.0045,184.0585 451.6725,175.3575 472.5615,175.3575 C490.0105,175.0865 502.6495,178.8915 512.4975,182.8575 L517.2795,185.1165 L524.5125,142.6875 Z M661.3395,138.0545 L620.1085,138.0545 C607.3355,138.0545 597.7775,141.5405 592.1675,154.2885 L512.9225,333.6915 L568.9535,333.6915 C568.9535,333.6915 578.1155,309.5695 580.1875,304.2735 C586.3105,304.2735 640.7415,304.3575 648.5235,304.3575 C650.1195,311.2105 655.0155,333.6915 655.0155,333.6915 L704.5275,333.6915 L661.3395,138.0545 Z M595.5425,264.2325 C599.9555,252.9535 616.8015,209.5095 616.8015,209.5095 C616.4865,210.0305 621.1815,198.1755 623.8765,190.8255 L627.4835,207.7035 C627.4835,207.7035 637.7005,254.4325 639.8355,264.2315 L595.5425,264.2315 L595.5425,264.2325 Z M277.6505,333.6295 L330.9865,333.6295 L364.3705,137.8675 L311.0115,137.8675 L277.6505,333.6295 Z M175.088482,244.366796 L156.3815,154.4165 C153.1515,142.0205 143.7835,138.3215 132.1945,137.8895 L46.1535,137.8895 L45.4725,141.9625 C66.4024534,147.029038 85.1184477,154.339743 101.520801,163.434171 L148.9595,333.4605 L205.4145,333.3955 L289.4185,138.0105 L232.8975,138.0105 L180.6575,271.5055 L175.0915,244.3765 C175.090494,244.373266 175.089488,244.370031 175.088482,244.366797 Z" id="Combined-Shape" fill="#393939" fill-rule="nonzero"></path>
    </g>
</svg>
